static/assets/images/icons/chainlink-1.svg

<svg width="257" height="256" viewBox="0 0 257 256" fill="none" xmlns="http://www.w3.org/2000/svg">
<path d="M128.788 66.3L182.229 97.0285V158.787L128.939 189.705L75.5349 159.052V97.3305L128.788 66.3ZM128.788 21L109.19 32.325L55.8242 63.3555L36.2266 74.6805V181.777L55.8242 193.102L109.266 223.831L128.863 235.156L148.461 223.831L201.714 192.876L221.311 181.551V74.303L201.714 62.978L148.31 32.325L128.712 21H128.788Z" fill="black"/>
</svg>

<svg xmlns="http://www.w3.org/2000/svg" fill="none" viewBox="0 0 257 256"><path fill="#000" d="m128.788 66.3 53.441 30.728v61.759l-53.29 30.918-53.404-30.653V97.331zm0-45.3L109.19 32.325l-53.366 31.03L36.227 74.68v107.097l19.597 11.325 53.442 30.729 19.597 11.325 19.598-11.325 53.253-30.955 19.597-11.325V74.303l-19.597-11.325-53.404-30.653L128.712 21z"/></svg>
